X: 324
T: Da dianhua
%%abc-version 2.0
%%abcx-abcm2ps-target-version 5.9.1 (29 Sep 2008)
%%abc-creator hum2abc beta
%%abcx-conversion-date 2013/10/02 07:52:30
%%abc-edited-by Helmut Schaffrath
%%humdrum-veritas 1554230050
%%humdrum-veritas-data 11475487
%%continueall 1
%%barnumbers 0
L: 1/16
M: 2/4
K: G
d2 d2 c2 B A [I:setbarnb 1]| 
G A B dA4 | 
d2 d2 c2 B A | 
G A B dA4 | 
d2 d B2< A2 B | 
G A B dA4 | 
A2 A B A2 B2 | 
D2> E2 G2 A2 | 
F2 D2D4 |]  



